icons/origin.svg

<svg aria-labelledby="simpleicons-origin-icon" role="img" viewBox="0 0 24 24" xmlns="http://www.w3.org/2000/svg"><title id="simpleicons-origin-icon">Origin icon</title><path d="M12.588 3.11c1.189.071 2.352.384 3.417.919 1.031.514 1.95 1.225 2.706 2.094.751.865 1.322 1.853 1.715 2.963.391 1.109.548 2.278.464 3.502-.033.636-.135 1.252-.306 1.848-.167.588-.393 1.159-.674 1.703-.439.849-.929 1.652-1.47 2.412-.538.759-1.125 1.465-1.762 2.118-.638.653-1.313 1.254-2.032 1.802-.719.544-1.471 1.038-2.254 1.479l-.037.026c-.033.018-.071.026-.109.023-.063-.015-.118-.048-.159-.097-.041-.05-.063-.111-.062-.173 0-.029.004-.059.012-.085.008-.023.021-.044.037-.062.277-.393.506-.806.686-1.235.181-.434.303-.885.368-1.359 0-.032-.015-.064-.038-.085-.021-.025-.053-.038-.085-.038-.264.032-.528.053-.795.062-.266.009-.532-.003-.796-.037-1.189-.071-2.353-.385-3.418-.918-1.031-.515-1.949-1.226-2.705-2.095-.754-.87-1.336-1.875-1.715-2.963-.394-1.123-.552-2.314-.465-3.502.033-.636.135-1.252.306-1.848.171-.598.396-1.155.675-1.68.439-.864.931-1.676 1.469-2.436.539-.757 1.125-1.464 1.761-2.118.639-.652 1.314-1.252 2.033-1.8.72-.546 1.47-1.039 2.253-1.479l.038-.025c.033-.02.07-.027.109-.025.065.016.119.051.158.098.043.051.062.106.062.174.001.027-.003.057-.012.084-.007.023-.02.043-.036.061-.273.386-.505.801-.687 1.237-.181.433-.3.885-.366 1.358 0 .033.012.063.036.086.022.024.054.037.085.037.262-.033.527-.053.795-.061.272-.009.536.003.798.035zm-.807 12.367c.922.079 1.838-.231 2.521-.855.72-.639 1.109-1.438 1.176-2.4.078-.928-.232-1.846-.856-2.535-.601-.708-1.472-1.131-2.4-1.162-.927-.078-1.845.232-2.534.855-.709.602-1.132 1.473-1.164 2.4-.078.926.228 1.842.846 2.535.628.725 1.432 1.115 2.411 1.162z"/></svg>

<?xml version="1.0" standalone="no"?><!-- Generator: Gravit.io --><svg xmlns="http://www.w3.org/2000/svg" xmlns:xlink="http://www.w3.org/1999/xlink" style="isolation:isolate" viewBox="0 0 24 24" width="24" height="24"><path d=" M 12.588 3.11 C 13.777 3.181 14.94 3.494 16.005 4.029 C 17.036 4.543 17.955 5.254 18.711 6.123 C 19.462 6.988 20.033 7.976 20.426 9.086 C 20.817 10.195 20.974 11.364 20.89 12.588 C 20.857 13.224 20.755 13.84 20.584 14.436 C 20.417 15.024 20.191 15.595 19.91 16.139 C 19.471 16.988 18.981 17.791 18.44 18.551 C 17.902 19.31 17.315 20.016 16.678 20.669 C 16.04 21.322 15.365 21.923 14.646 22.471 C 13.927 23.015 13.175 23.509 12.392 23.95 L 12.355 23.976 C 12.322 23.994 12.284 24.002 12.246 23.999 C 12.183 23.984 12.128 23.951 12.087 23.902 C 12.046 23.852 12.024 23.791 12.025 23.729 C 12.025 23.7 12.029 23.67 12.037 23.644 C 12.045 23.621 12.058 23.6 12.074 23.582 C 12.351 23.189 12.58 22.776 12.76 22.347 C 12.941 21.913 13.063 21.462 13.128 20.988 C 13.128 20.956 13.113 20.924 13.09 20.903 C 13.069 20.878 13.037 20.865 13.005 20.865 C 12.741 20.897 12.477 20.918 12.21 20.927 C 11.944 20.936 11.678 20.924 11.414 20.89 C 10.225 20.819 9.061 20.505 7.996 19.972 C 6.965 19.457 6.047 18.746 5.291 17.877 C 4.537 17.007 3.955 16.002 3.576 14.914 C 3.182 13.791 3.024 12.6 3.111 11.412 C 3.144 10.776 3.246 10.16 3.417 9.564 C 3.588 8.966 3.813 8.409 4.092 7.884 C 4.531 7.02 5.023 6.208 5.561 5.448 C 6.1 4.691 6.686 3.984 7.322 3.33 C 7.961 2.678 8.636 2.078 9.355 1.53 C 10.075 0.984 10.825 0.491 11.608 0.051 L 11.646 0.026 C 11.679 0.006 11.716 -0.001 11.755 0.001 C 11.82 0.017 11.874 0.052 11.913 0.099 C 11.956 0.15 11.975 0.205 11.975 0.273 C 11.976 0.3 11.972 0.33 11.963 0.357 C 11.956 0.38 11.943 0.4 11.927 0.418 C 11.654 0.804 11.422 1.219 11.24 1.655 C 11.059 2.088 10.94 2.54 10.874 3.013 C 10.874 3.046 10.886 3.076 10.91 3.099 C 10.932 3.123 10.964 3.136 10.995 3.136 C 11.257 3.103 11.522 3.083 11.79 3.075 C 12.062 3.066 12.326 3.078 12.588 3.11 Z  M 11.781 15.477 C 12.703 15.556 13.619 15.246 14.302 14.622 C 15.022 13.983 15.411 13.184 15.478 12.222 C 15.556 11.294 15.246 10.376 14.622 9.687 C 14.021 8.979 13.15 8.556 12.222 8.525 C 11.295 8.447 10.377 8.757 9.688 9.38 C 8.979 9.982 8.556 10.853 8.524 11.78 C 8.446 12.706 8.752 13.622 9.37 14.315 C 9.998 15.04 10.802 15.43 11.781 15.477 Z " fill="rgb(46,125,50)"/></svg>
